!! 00000] TT[00
!! NN
!!!OTL: Shui gua zhangjiakou
!!!ARE: Asia, China,ÿHebei, Zhangjiakou
!! Ethnic Group: Han
!! IV, 55
!!!SCT: C0375
!!!YEM: Copyright 1995, estate of Helmut Schaffrath.
**kern
*ICvox
*Ivox
*M2/4
*k[b-]
*F:
{8a
8cc
16dd
16ff
16ff
16dd
=1
2cc}
=2
{16.dd
32dd
16dd
16cc
16a
16a
8g
=3
2f}
=4
{8ff
16ff
16a
8cc
16cc
16dd
=5
8a
16a
16dd
8cc
16cc
16a}
=6
{8g
16g
16a
8cc
16cc
16d
=7
8.f
16a
16g
16d
16f
16d
=8
2c}
=9
{8ff
16ff
16a
8cc
16cc
16dd
=10
8a
16a
16dd
8cc
16cc
16a}
=11
{8g
16g
16a
8cc
16cc
16d
=12
8.f
16a
16g
16d
16f
16d
=13
2c}
==
!!!AGN: Xiaodiao. Xushu lishi shijian
!! Geschichte einer Ueberhschwemmung 1924 einer Stadt am Yangtse.
!!    Wenig Verzierungen.
!!!ONB: ESAC (Essen Associative Code) Database: CHINA
!!!AMT: simple duple
!!!AIN: vox
!!!EED: Helmut Schaffrath
!!!EEV: 1.0
*-
